X: 11796
T: Ellen
R: polka
M: 2/4
K: Dmajor
L:1/16
|:A3f e3f|e3d d2d2|A2dd d2d2|d2cc c2c2|c2gg g3f|
f3e e2e2|1 G3A B2cc|d3e f4:|2 G3A B2c2|d2d2 d4||
|:A3f f2d2|c8|A2gg g2e2|d8|ddd2 A2d2|
eee2 c4|1 eee2 d2e2|fff2 d4:|2 G3A B2c2|d2d2 d4||
|:ggg2 fff2|dddB A4|dddd A2d2|eee2 c4|
ggg2 fff2|eee2 c4|A3A B2c2|1 d2e2 f4:|2 d2d2 d4||

